X:1545
T:From Shore to Shore
R:reel
N:no source given
B:"O'Neill's Dance Music of Ireland, 1545"
T: ua tra.g go tra.g.
Z:transcribed by John B. Walsh, walsh@math.ubc.ca 8/23/96
M:C|
L:1/8
K:G
Bdd^c egdg|((3efg) (dg) fafd|Bdd^c egdg|cAFD (BG) G2|
Bdd^c egdg|((3efg) (dg) fafd|Bdd^c egdg|fdcA BG G2||
bgfg egdg|bgfg (fa ) a2|bgfg egdg|cAFD (BG) G2|
bgfg egdg|bgfg (fa ) a2|((3bag) ((3agf) ((3gfe) ((3dcB)|cAFD (BG) G2||


